flaticon/hand-gestures/smartwatch.svg

<svg xmlns="http://www.w3.org/2000/svg" width="32" height="32" viewBox="0 0 24 24">
    <path d="M 19.121094 10 L 18.398438 10 L 18.398438 6.121094 C 18.398438 4.960938 17.441406 4 16.28125 4 L 16.230469 4 L 15.960938 3.519531 C 15.679688 3.078125 15.558594 2.558594 15.558594 2.078125 C 15.558594 0.921875 14.519531 0 13.238281 0 L 9.160156 0 C 7.878906 0 6.839844 0.921875 6.839844 2.078125 C 6.839844 2.558594 6.679688 3.078125 6.441406 3.519531 L 6.171875 4 L 6.121094 4 C 4.960938 4 4 4.960938 4 6.121094 L 4 17.878906 C 4 19.039062 4.960938 20 6.121094 20 L 6.171875 20 L 6.441406 20.480469 C 6.71875 20.921875 6.839844 21.441406 6.839844 21.921875 C 6.839844 23.078125 7.878906 24 9.160156 24 L 10.800781 24 L 10.800781 15.566406 C 10.808594 15.523438 10.808594 15.480469 10.800781 15.433594 L 10.800781 14 C 10.800781 13.558594 10.960938 13.160156 11.199219 12.800781 L 11.199219 14.800781 C 11.199219 15.039062 11.359375 15.199219 11.601562 15.199219 L 14 15.199219 C 14.238281 15.199219 14.398438 15.039062 14.398438 14.800781 L 14.398438 12.800781 C 14.640625 13.160156 14.800781 13.558594 14.800781 14 L 14.800781 23.601562 C 14.800781 23.839844 14.960938 24 15.199219 24 C 15.441406 24 15.601562 23.839844 15.601562 23.640625 L 15.601562 20 L 16.28125 20 C 17.441406 20 18.398438 19.039062 18.398438 17.878906 L 18.398438 14 L 19.121094 14 C 19.601562 14 20 13.601562 20 13.160156 L 20 10.878906 C 20 10.398438 19.601562 10 19.121094 10 Z M 7.160156 3.921875 C 7.480469 3.359375 7.640625 2.71875 7.640625 2.078125 C 7.640625 1.359375 8.320312 0.800781 9.160156 0.800781 L 13.238281 0.800781 C 14.078125 0.800781 14.761719 1.359375 14.761719 2.078125 C 14.761719 2.71875 14.921875 3.359375 15.238281 3.921875 L 15.28125 4 L 7.078125 4 Z M 9.121094 23.199219 C 8.28125 23.199219 7.601562 22.640625 7.601562 21.921875 C 7.601562 21.28125 7.441406 20.640625 7.121094 20.078125 L 7.078125 20 L 10 20 L 10 23.199219 Z M 13.601562 14.398438 L 12 14.398438 L 12 12 C 12 11.558594 12.359375 11.199219 12.800781 11.199219 C 13.238281 11.199219 13.601562 11.558594 13.601562 12 Z M 17.601562 17.878906 C 17.601562 18.601562 17 19.199219 16.28125 19.199219 L 15.601562 19.199219 L 15.601562 15.679688 C 15.730469 15.546875 15.859375 15.414062 15.960938 15.28125 C 16.078125 15.121094 16.039062 14.839844 15.878906 14.71875 C 15.804688 14.664062 15.699219 14.640625 15.601562 14.652344 L 15.601562 14.039062 C 15.601562 13.105469 15.148438 12.207031 14.371094 11.703125 C 14.230469 10.964844 13.578125 10.398438 12.800781 10.398438 C 12.03125 10.398438 11.386719 10.945312 11.234375 11.671875 C 10.488281 12.203125 10 13.066406 10 14 L 10 14.640625 C 9.914062 14.640625 9.824219 14.671875 9.761719 14.71875 C 9.558594 14.839844 9.558594 15.121094 9.679688 15.28125 C 9.769531 15.398438 9.882812 15.519531 10 15.640625 L 10 19.199219 L 6.121094 19.199219 C 5.398438 19.199219 4.800781 18.601562 4.800781 17.878906 L 4.800781 6.121094 C 4.800781 5.398438 5.398438 4.800781 6.121094 4.800781 L 16.28125 4.800781 C 17 4.800781 17.601562 5.398438 17.601562 6.121094 Z M 19.199219 13.121094 C 19.199219 13.160156 19.160156 13.199219 19.121094 13.199219 L 18.398438 13.199219 L 18.398438 10.761719 L 19.121094 10.761719 C 19.160156 10.761719 19.199219 10.800781 19.199219 10.839844 Z M 19.199219 13.121094"/>
    <path d="M6 8C6.121094 8 6.199219 7.960938 6.28125 7.878906L7.878906 6.28125C8.039062 6.121094 8.039062 5.878906 7.878906 5.71875 7.71875 5.558594 7.480469 5.558594 7.320312 5.71875L5.71875 7.320312C5.558594 7.480469 5.558594 7.71875 5.71875 7.878906 5.800781 7.960938 5.878906 8 6 8zM6 10C6.121094 10 6.199219 9.960938 6.28125 9.878906L7.078125 9.078125C7.238281 8.921875 7.238281 8.679688 7.078125 8.519531 6.921875 8.359375 6.679688 8.359375 6.519531 8.519531L5.71875 9.320312C5.558594 9.480469 5.558594 9.71875 5.71875 9.878906 5.800781 9.960938 5.878906 10 6 10zM8.121094 7.480469C8.199219 7.558594 8.28125 7.601562 8.398438 7.601562 8.519531 7.601562 8.601562 7.558594 8.679688 7.480469L9.878906 6.28125C10.039062 6.121094 10.039062 5.878906 9.878906 5.71875 9.71875 5.558594 9.480469 5.558594 9.320312 5.71875L8.121094 6.921875C7.960938 7.078125 7.960938 7.320312 8.121094 7.480469zM9.878906 7.71875C9.71875 7.558594 9.480469 7.558594 9.320312 7.71875L5.71875 11.320312C5.558594 11.480469 5.558594 11.71875 5.71875 11.878906 5.800781 11.960938 5.878906 12 6 12 6.121094 12 6.199219 11.960938 6.28125 11.878906L9.878906 8.28125C10.039062 8.121094 10.039062 7.878906 9.878906 7.71875zM11.199219 6.800781C11.320312 6.800781 11.398438 6.761719 11.480469 6.679688L11.878906 6.28125C12.039062 6.121094 12.039062 5.878906 11.878906 5.71875 11.71875 5.558594 11.480469 5.558594 11.320312 5.71875L10.921875 6.121094C10.761719 6.28125 10.761719 6.519531 10.921875 6.679688 11 6.761719 11.078125 6.800781 11.199219 6.800781zM13.199219 21.601562C13.441406 21.601562 13.601562 21.441406 13.601562 21.199219 13.601562 20.960938 13.441406 20.800781 13.199219 20.800781L12.398438 20.800781C12.160156 20.800781 12 20.960938 12 21.199219 12 21.441406 12.160156 21.601562 12.398438 21.601562zM13.601562 22.398438L12 22.398438C11.761719 22.398438 11.601562 22.558594 11.601562 22.800781 11.601562 23.039062 11.761719 23.199219 12 23.199219L13.601562 23.199219C13.839844 23.199219 14 23.039062 14 22.800781 14 22.558594 13.839844 22.398438 13.601562 22.398438zM16.398438 12.320312C16.160156 12.320312 16 12.480469 16 12.71875L16 12.761719C16 13.121094 15.960938 13.480469 15.839844 13.800781 15.761719 14.039062 15.878906 14.238281 16.078125 14.320312 16.121094 14.359375 16.160156 14.359375 16.199219 14.359375 16.359375 14.359375 16.519531 14.238281 16.601562 14.078125 16.71875 13.679688 16.800781 13.238281 16.800781 12.800781L16.800781 12.71875C16.800781 12.480469 16.640625 12.320312 16.398438 12.320312zM12.121094 8.839844C11.679688 8.921875 11.238281 9.078125 10.839844 9.320312 10.640625 9.441406 10.558594 9.679688 10.679688 9.878906 10.761719 10 10.921875 10.078125 11.039062 10.078125 11.078125 10.078125 11.160156 10.039062 11.238281 10 11.558594 9.839844 11.921875 9.71875 12.28125 9.640625 12.480469 9.601562 12.640625 9.359375 12.601562 9.160156 12.558594 8.960938 12.320312 8.800781 12.121094 8.839844zM16.160156 11.921875C16.199219 11.921875 16.28125 11.921875 16.320312 11.921875 16.519531 11.839844 16.640625 11.601562 16.558594 11.398438 16.359375 10.960938 16.160156 10.558594 15.839844 10.199219 15.679688 10.039062 15.441406 10 15.28125 10.160156 15.121094 10.28125 15.078125 10.558594 15.238281 10.71875 15.480469 11 15.679688 11.320312 15.800781 11.679688 15.839844 11.839844 16 11.921875 16.160156 11.921875zM14.800781 9.359375C14.398438 9.121094 13.960938 8.960938 13.519531 8.878906 13.28125 8.839844 13.078125 9 13.039062 9.199219 13 9.441406 13.160156 9.640625 13.359375 9.679688 13.71875 9.71875 14.078125 9.839844 14.398438 10.039062 14.480469 10.078125 14.519531 10.078125 14.601562 10.078125 14.71875 10.078125 14.839844 10 14.960938 9.921875 15.039062 9.71875 15 9.480469 14.800781 9.359375zM9.761719 10.199219C9.441406 10.519531 9.199219 10.921875 9.039062 11.359375 8.960938 11.558594 9.078125 11.800781 9.28125 11.878906 9.359375 11.921875 9.398438 11.921875 9.441406 11.921875 9.601562 11.921875 9.761719 11.800781 9.800781 11.679688 9.921875 11.320312 10.121094 11 10.359375 10.71875 10.519531 10.558594 10.480469 10.320312 10.320312 10.160156 10.160156 10 9.921875 10.039062 9.761719 10.199219zM9.640625 12.800781L9.640625 12.71875C9.640625 12.519531 9.480469 12.320312 9.238281 12.320312 9.039062 12.320312 8.839844 12.480469 8.839844 12.71875L8.839844 12.800781C8.839844 13.238281 8.878906 13.679688 9.039062 14.078125 9.078125 14.238281 9.238281 14.359375 9.398438 14.359375 9.441406 14.359375 9.480469 14.359375 9.558594 14.359375 9.761719 14.28125 9.878906 14.039062 9.800781 13.839844 9.679688 13.480469 9.640625 13.160156 9.640625 12.800781zM9.640625 12.800781"/>
</svg>

<svg xmlns="http://www.w3.org/2000/svg" width="32" height="32" viewBox="0 0 24 24">
    <path d="M19.121 10h-.723V6.121c0-1.16-.957-2.121-2.117-2.121h-.05l-.27-.48a2.705 2.705 0 0 1-.402-1.442C15.559.922 14.519 0 13.239 0H9.16C7.88 0 6.84.922 6.84 2.078c0 .48-.16 1-.399 1.442l-.27.48h-.05C4.961 4 4 4.96 4 6.121V17.88C4 19.039 4.96 20 6.121 20h.05l.27.48c.278.442.399.961.399 1.442C6.84 23.078 7.879 24 9.16 24h1.64v-8.434a.379.379 0 0 0 0-.132V14c0-.441.16-.84.4-1.2v2c0 .24.16.4.402.4H14c.238 0 .398-.16.398-.4v-2c.243.36.403.759.403 1.2v9.602c0 .238.16.398.398.398.242 0 .403-.16.403-.36V20h.68c1.16 0 2.116-.96 2.116-2.121V14h.723c.48 0 .879-.398.879-.84V10.88a.885.885 0 0 0-.879-.879zM7.161 3.922c.32-.563.48-1.203.48-1.844 0-.719.68-1.277 1.52-1.277h4.077c.84 0 1.524.558 1.524 1.277 0 .64.16 1.281.476 1.844l.043.078H7.078zm1.96 19.277c-.84 0-1.52-.558-1.52-1.277 0-.64-.16-1.281-.48-1.844L7.078 20H10v3.2zm4.48-8.8H12V12c0-.441.36-.8.8-.8.438 0 .802.359.802.8zm4 3.48c0 .723-.601 1.32-1.32 1.32h-.68v-3.52c.13-.132.258-.265.36-.398.117-.16.078-.441-.082-.562a.4.4 0 0 0-.277-.067v-.613c0-.934-.454-1.832-1.23-2.336a1.608 1.608 0 0 0-1.571-1.305c-.77 0-1.414.547-1.567 1.274C10.488 12.203 10 13.066 10 14v.64a.414.414 0 0 0-.238.079c-.203.12-.203.402-.082.562.09.117.203.239.32.36v3.558H6.121c-.723 0-1.32-.597-1.32-1.32V6.12c0-.723.597-1.32 1.32-1.32h10.16c.719 0 1.32.597 1.32 1.32zM19.2 13.12c0 .04-.039.078-.078.078h-.723v-2.437h.723c.04 0 .078.039.078.078zm0 0"/>
    <path d="M6 8c.121 0 .2-.04.281-.121L7.88 6.28a.39.39 0 0 0 0-.562.385.385 0 0 0-.559 0L5.72 7.32a.385.385 0 0 0 0 .559C5.8 7.96 5.879 8 6 8zm0 0M6 10c.121 0 .2-.04.281-.121l.797-.8a.385.385 0 0 0 0-.56.385.385 0 0 0-.558 0l-.801.801a.385.385 0 0 0 0 .559C5.8 9.96 5.879 10 6 10zm0 0M8.121 7.48c.078.079.16.122.277.122a.369.369 0 0 0 .282-.122l1.199-1.199a.39.39 0 0 0 0-.562.385.385 0 0 0-.559 0L8.121 6.922a.385.385 0 0 0 0 .558zm0 0M9.879 7.719a.385.385 0 0 0-.559 0L5.72 11.32a.385.385 0 0 0 0 .559c.082.082.16.121.281.121.121 0 .2-.04.281-.121L9.88 8.28a.39.39 0 0 0 0-.562zm0 0M11.2 6.8c.12 0 .198-.038.28-.12l.399-.399a.39.39 0 0 0 0-.562.385.385 0 0 0-.559 0l-.398.402a.385.385 0 0 0 0 .559.348.348 0 0 0 .277.12zm0 0M13.2 21.602c.241 0 .402-.16.402-.403 0-.238-.16-.398-.403-.398h-.8c-.239 0-.399.16-.399.398 0 .242.16.403.398.403zm0 0M13.602 22.398H12c-.238 0-.398.16-.398.403 0 .238.16.398.398.398h1.602c.238 0 .398-.16.398-.398 0-.242-.16-.403-.398-.403zm0 0M16.398 12.32c-.238 0-.398.16-.398.399v.043c0 .36-.04.718-.16 1.039a.402.402 0 0 0 .238.52c.043.038.082.038.121.038.16 0 .32-.12.403-.28.117-.4.199-.84.199-1.278v-.082c0-.239-.16-.399-.403-.399zm0 0M12.121 8.84a3.812 3.812 0 0 0-1.281.48c-.2.121-.281.36-.16.559a.48.48 0 0 0 .36.2c.038 0 .12-.04.198-.079a4.51 4.51 0 0 1 1.043-.36c.2-.038.36-.28.32-.48-.042-.2-.28-.36-.48-.32zm0 0M16.16 11.922h.16c.2-.082.32-.32.239-.524-.2-.437-.399-.84-.72-1.199-.16-.16-.398-.199-.558-.039-.16.121-.203.399-.043.559.242.281.442.601.563.96.039.16.199.243.36.243zm0 0M14.8 9.36a3.93 3.93 0 0 0-1.28-.481.417.417 0 0 0-.48.32.415.415 0 0 0 .32.48c.359.04.718.16 1.038.36.082.04.122.04.204.04.117 0 .238-.079.359-.157.078-.203.039-.442-.16-.563zm0 0M9.762 10.2c-.32.32-.563.722-.723 1.16-.078.199.04.44.242.519a.278.278 0 0 0 .16.043c.16 0 .32-.121.36-.242.12-.36.32-.68.558-.961.16-.16.121-.399-.039-.559-.16-.16-.398-.12-.558.04zm0 0M9.64 12.8v-.081a.4.4 0 0 0-.8 0v.082c0 .437.039.879.2 1.277.038.16.198.281.358.281h.16c.204-.078.32-.32.243-.52a3.1 3.1 0 0 1-.16-1.038zm0 0"/>
</svg>
